X: 146
T: Queen's Birthday, The
M:4/4
L:1/8
Q:160
S:Playford
O:Manuscript
A:English
K:C
c2 G2 E2 G2 |c4 G4|cd c2 de d2|ef e2 d4|c2 G2 E2 G2|c4 G2 c2|cdcd d3 c|c6 z2:|
|: ef|g2 e2 c2 g2|a4 g4|fg f2 ef e2|dedc B2 ef|g2 e2 c2 g2|a4 g4|fgfe d2 g2 |e3 d c4:|

